src/symbolic/mimetypes/font-x-generic-symbolic.svg

<?xml version="1.0" encoding="UTF-8" standalone="no"?>
<svg
   xmlns:dc="http://purl.org/dc/elements/1.1/"
   xmlns:cc="http://creativecommons.org/ns#"
   xmlns:rdf="http://www.w3.org/1999/02/22-rdf-syntax-ns#"
   xmlns:svg="http://www.w3.org/2000/svg"
   xmlns="http://www.w3.org/2000/svg"
   height="16"
   width="16"
   version="1.1"
   id="svg6">
  <metadata
     id="metadata12">
    <rdf:RDF>
      <cc:Work
         rdf:about="">
        <dc:format>image/svg+xml</dc:format>
        <dc:type
           rdf:resource="http://purl.org/dc/dcmitype/StillImage" />
        <dc:title />
      </cc:Work>
    </rdf:RDF>
  </metadata>
  <defs
     id="defs10" />
  <path
     style="font-style:normal;font-variant:normal;font-weight:bold;font-stretch:normal;font-size:13.95095444px;line-height:1.25;font-family:'Open Sans';-inkscape-font-specification:'Open Sans Bold';letter-spacing:0px;word-spacing:0px;opacity:1;vector-effect:none;fill:#666666;fill-opacity:1;stroke:none;stroke-width:1;stroke-linecap:butt;stroke-linejoin:miter;stroke-miterlimit:4;stroke-dasharray:none;stroke-dashoffset:0;stroke-opacity:1;font-variant-east_asian:normal"
     d="M 5.0449219 3 L 1.5292969 13 L 3.8046875 13 L 4.5273438 11 L 6.6191406 11 C 6.6180316 10.958405 6.609375 10.918797 6.609375 10.876953 C 6.609375 10.454969 6.6450401 10.032501 6.71875 9.6113281 L 6.7167969 9.6132812 C 6.7524202 9.4071755 6.7974082 9.2029559 6.8515625 9 L 5.0585938 9 L 6.3457031 5 L 7.2734375 7.8339844 C 7.5929463 7.131259 8.0117176 6.5075344 8.5429688 5.9941406 C 8.5766041 5.9616359 8.6176481 5.9393162 8.6523438 5.9082031 L 7.6269531 3 L 5.0449219 3 z M 11.189453 5.9316406 C 10.428583 5.9316402 9.7772312 6.1920566 9.2382812 6.7128906 C 8.6993322 7.2337236 8.2859487 7.8923511 7.9960938 8.6894531 C 7.8647528 9.0517721 7.766531 9.4163555 7.703125 9.7832031 C 7.639715 10.145523 7.609375 10.510105 7.609375 10.876953 C 7.609375 11.239272 7.661456 11.564283 7.765625 11.849609 C 8.055481 12.642182 8.6112719 13.037109 9.4355469 13.037109 C 10.259822 13.037109 10.959975 12.608555 11.535156 11.748047 C 11.589506 12.160185 11.735196 12.478628 11.970703 12.705078 C 12.206209 12.926998 12.5062 13.037109 12.873047 13.037109 C 13.244424 13.037109 13.550979 12.907213 13.791016 12.644531 C 13.926885 12.490546 14.092361 12.151692 14.287109 11.630859 C 14.205589 11.671619 14.102753 11.693359 13.980469 11.693359 C 13.600035 11.693359 13.410156 11.533826 13.410156 11.216797 C 13.410156 11.049224 13.429943 10.887031 13.470703 10.728516 L 14.470703 6 L 12.466797 6 L 12.316406 6.7402344 L 12.316406 6.6386719 C 12.316406 6.4348669 12.227406 6.2680597 12.050781 6.1367188 C 11.874151 6.0008497 11.588003 5.9316406 11.189453 5.9316406 z M 11.5625 6.7949219 C 11.820652 6.7949219 11.987461 6.8621719 12.064453 6.9980469 C 12.145973 7.1293869 12.1875 7.2381678 12.1875 7.3242188 L 11.521484 10.462891 C 11.435434 10.843326 11.279183 11.145266 11.052734 11.367188 C 10.826285 11.584578 10.575096 11.693359 10.298828 11.693359 C 10.149371 11.693359 10.025418 11.642606 9.9257812 11.542969 C 9.7536792 11.379925 9.6660156 11.093779 9.6660156 10.681641 C 9.6660156 10.468779 9.6785219 10.266389 9.7011719 10.076172 C 9.8506289 8.8307009 10.219826 7.8747454 10.808594 7.2089844 C 11.053159 6.9327164 11.304348 6.7949219 11.5625 6.7949219 z "
     id="text76" />
</svg>

<svg xmlns="http://www.w3.org/2000/svg" height="16" width="16"><path style="line-height:1.25;-inkscape-font-specification:'Open Sans Bold';font-variant-east_asian:normal" d="M5.045 3L1.529 13h2.276l.722-2H6.62c-.001-.042-.01-.081-.01-.123 0-.422.036-.844.11-1.266l-.002.002c.035-.206.08-.41.135-.613H5.059l1.287-4 .927 2.834a5.962 5.962 0 0 1 1.27-1.84c.034-.032.075-.055.11-.086L7.626 3H5.045zm6.144 2.932c-.76 0-1.412.26-1.95.78-.54.522-.953 1.18-1.243 1.977a6.41 6.41 0 0 0-.387 2.188c0 .362.052.687.157.973.29.792.845 1.187 1.67 1.187.824 0 1.524-.428 2.1-1.289.054.412.2.73.435.957.235.222.535.332.902.332.371 0 .678-.13.918-.392.136-.154.301-.493.496-1.014a.684.684 0 0 1-.307.062c-.38 0-.57-.16-.57-.476 0-.168.02-.33.06-.488l1-4.729h-2.003l-.15.74V6.64a.601.601 0 0 0-.266-.502c-.177-.136-.463-.205-.862-.205zm.373.863c.259 0 .425.067.502.203.082.131.123.24.123.326l-.666 3.139c-.086.38-.242.682-.468.904-.227.218-.478.326-.754.326a.506.506 0 0 1-.373-.15c-.172-.163-.26-.45-.26-.861 0-.213.013-.416.035-.606.15-1.245.519-2.201 1.108-2.867.244-.276.495-.414.754-.414z" font-weight="700" font-size="13.951" font-family="Open Sans" letter-spacing="0" word-spacing="0" fill="#5d656b"/></svg>
